optimized/24/outline/home-modern.svg

<svg xmlns="http://www.w3.org/2000/svg" fill="none" viewBox="0 0 24 24">
  <path stroke-linecap="round" stroke-linejoin="round" d="M8.25 21V16.125C8.25 15.5037 8.75368 15 9.375 15H11.625C12.2463 15 12.75 15.5037 12.75 16.125V21M12.75 21H17.25V3.54545M12.75 21H20.25V10.75M2.25 21H3.75M21.75 21H3.75M2.25 9L6.75 7.36364M18.75 3L17.25 3.54545M17.25 9.75L20.25 10.75M21.75 11.25L20.25 10.75M6.75 7.36364V3H3.75V21M6.75 7.36364L17.25 3.54545"/>
</svg>

<svg xmlns="http://www.w3.org/2000/svg" fill="none" viewBox="0 0 24 24" stroke-width="1.5" stroke="currentColor" aria-hidden="true">
  <path stroke-linecap="round" stroke-linejoin="round" d="M8.25 21v-4.875c0-.621.504-1.125 1.125-1.125h2.25c.621 0 1.125.504 1.125 1.125V21m0 0h4.5V3.545M12.75 21h7.5V10.75M2.25 21h1.5m18 0h-18M2.25 9l4.5-1.636M18.75 3l-1.5.545m0 6.205l3 1m1.5.5l-1.5-.5M6.75 7.364V3h-3v18m3-13.636l10.5-3.819"/>
</svg>
